packages/kaspersky-hexa-ui-icons/src/iconsSVGs/24/CloudSync1.svg

<svg width="16" height="16" viewBox="0 0 16 16" fill="none" xmlns="http://www.w3.org/2000/svg">
<path d="M7.35286 13.3333V8M7.35286 8L6.01953 9.33333M7.35286 8L8.6862 9.33333" stroke="black" stroke-width="1.3" stroke-linecap="round" stroke-linejoin="round"/>
<path d="M11.3529 7.99992V13.3333M11.3529 13.3333L10.0195 11.9999M11.3529 13.3333L12.6862 11.9999" stroke="black" stroke-width="1.3" stroke-linecap="round" stroke-linejoin="round"/>
<path d="M8.0001 2.0166C6.1662 2.0166 4.46519 3.16162 3.82339 5.09498C3.16593 5.23258 2.59078 5.55482 2.15791 6.04161C1.62812 6.63741 1.3501 7.43565 1.3501 8.33327C1.3501 10.0308 2.8844 11.3166 4.48005 11.3166H5.40296C4.83827 11.1248 4.37769 10.5334 4.18383 9.99217C3.33375 9.85146 2.6501 9.1231 2.6501 8.33327C2.6501 7.70577 2.84129 7.22946 3.12939 6.90547C3.41598 6.58316 3.83691 6.36773 4.38251 6.32625L4.85662 6.29021L4.96585 5.82745C5.34496 4.2214 6.63392 3.3166 8.0001 3.3166C9.1239 3.3166 10.153 3.90133 10.7512 5.00839L10.9201 5.32093L11.2744 5.34755C12.3547 5.42873 13.3501 6.37698 13.3501 7.6666C13.3501 8.59464 13.3501 9.52268 13.3501 10.4507C13.3501 10.4507 13.5098 10.3181 13.5683 10.2602C14.2363 9.59872 14.6501 8.68099 14.6501 7.6666C14.6501 5.8148 13.3149 4.38754 11.7229 4.09643C10.8789 2.76137 9.50347 2.0166 8.0001 2.0166Z" fill="black"/>
<path d="M13.1459 12.4595L11.8126 13.7928C11.5587 14.0466 11.1472 14.0466 10.8933 13.7928L9.56001 12.4595C9.30617 12.2056 9.30617 11.7941 9.56001 11.5402C9.81385 11.2864 10.2254 11.2864 10.4792 11.5402L10.703 11.7639V7.99985C10.703 7.64087 10.994 7.34985 11.353 7.34985C11.7119 7.34985 12.003 7.64087 12.003 7.99985V11.7639L12.2267 11.5402C12.4805 11.2864 12.8921 11.2864 13.1459 11.5402C13.3998 11.7941 13.3998 12.2056 13.1459 12.4595Z" fill="black"/>
<path d="M7.81258 7.54024C7.55874 7.28639 7.14718 7.28639 6.89334 7.54024L5.56001 8.87357C5.30617 9.12741 5.30617 9.53897 5.56001 9.79281C5.81385 10.0466 6.22541 10.0466 6.47925 9.79281L6.70296 9.56909V13.3332C6.70296 13.6922 6.99398 13.9832 7.35296 13.9832C7.71195 13.9832 8.00296 13.6922 8.00296 13.3332V9.56909L8.22668 9.79281C8.48052 10.0466 8.89207 10.0466 9.14592 9.79281C9.39976 9.53897 9.39976 9.12741 9.14592 8.87357L7.81258 7.54024Z" fill="black"/>
</svg>

<svg xmlns="http://www.w3.org/2000/svg" width="16" height="16" fill="none" viewBox="0 0 16 16"><path stroke="#000" stroke-linecap="round" stroke-linejoin="round" d="M7.353 13.333V8m0 0L6.02 9.333M7.353 8l1.333 1.333M11.353 8v5.333m0 0L10.02 12m1.333 1.333L12.686 12"/><path fill="#000" d="M8.0001 2.0166c-1.8339 0-3.535 1.145-4.1767 3.0784-.6575.1376-1.2326.4598-1.6655.9466-.5298.5958-.8078 1.394-.8078 2.2917 0 1.6975 1.5343 2.9833 3.13 2.9833h.9229c-.5647-.1918-1.0253-.7832-1.2192-1.3244-.85-.1407-1.5337-.8691-1.5337-1.659 0-.6274.1912-1.1037.4793-1.4277.2866-.3223.7075-.5378 1.2531-.5792l.4741-.036.1092-.4629c.3792-1.606 1.6681-2.5108 3.0343-2.5108 1.1238 0 2.1529.5847 2.7511 1.6918l.1689.3125.3543.0267c1.0803.0811 2.0757 1.0294 2.0757 2.319v2.7841s.1597-.1326.2182-.1905c.668-.6615 1.0818-1.5792 1.0818-2.5936 0-1.8518-1.3352-3.279-2.9272-3.5702-.844-1.335-2.2194-2.0798-3.7228-2.0798"/><path fill="#000" d="m13.146 12.46-1.333 1.333a.65.65 0 0 1-.919 0L9.56 12.46a.65.65 0 0 1 .919-.919l.224.224V8.001a.65.65 0 1 1 1.3 0v3.764l.224-.224a.65.65 0 0 1 .919.919M7.813 7.54a.65.65 0 0 0-.919 0L5.56 8.874a.65.65 0 0 0 .919.919l.224-.224v3.764a.65.65 0 1 0 1.3 0V9.569l.224.224a.65.65 0 0 0 .919-.919z"/></svg>
